packages/assets/static/images/icons/bold/train--bold.svg

<svg width="24" height="24" viewBox="0 0 24 24" xmlns="http://www.w3.org/2000/svg">
<path d="M17.75 1.875H7.25C6.35489 1.875 5.49645 2.23058 4.86351 2.86351C4.23058 3.49645 3.875 4.35489 3.875 5.25V17.25C3.875 18.1451 4.23058 19.0035 4.86351 19.6365C5.49645 20.2694 6.35489 20.625 7.25 20.625L6.35 21.825C6.17098 22.0637 6.09411 22.3637 6.13631 22.6591C6.1785 22.9545 6.33631 23.221 6.575 23.4C6.8137 23.579 7.11373 23.6559 7.4091 23.6137C7.70447 23.5715 7.97098 23.4137 8.15 23.175L10.0625 20.625H14.9375L16.85 23.175C17.029 23.4137 17.2955 23.5715 17.5909 23.6137C17.8863 23.6559 18.1863 23.579 18.425 23.4C18.6637 23.221 18.8215 22.9545 18.8637 22.6591C18.9059 22.3637 18.829 22.0637 18.65 21.825L17.75 20.625C18.6451 20.625 19.5035 20.2694 20.1365 19.6365C20.7694 19.0035 21.125 18.1451 21.125 17.25V5.25C21.125 4.35489 20.7694 3.49645 20.1365 2.86351C19.5035 2.23058 18.6451 1.875 17.75 1.875ZM6.125 10.875V7.875H11.375V10.875H6.125ZM13.625 7.875H18.875V10.875H13.625V7.875ZM7.25 4.125H17.75C18.0484 4.125 18.3345 4.24353 18.5455 4.4545C18.7565 4.66548 18.875 4.95163 18.875 5.25V5.625H6.125V5.25C6.125 4.95163 6.24353 4.66548 6.4545 4.4545C6.66548 4.24353 6.95163 4.125 7.25 4.125ZM17.75 18.375H7.25C6.95163 18.375 6.66548 18.2565 6.4545 18.0455C6.24353 17.8345 6.125 17.5484 6.125 17.25V13.125H18.875V17.25C18.875 17.5484 18.7565 17.8345 18.5455 18.0455C18.3345 18.2565 18.0484 18.375 17.75 18.375ZM10.25 15.75C10.25 16.0467 10.162 16.3367 9.9972 16.5834C9.83238 16.83 9.59811 17.0223 9.32403 17.1358C9.04994 17.2494 8.74834 17.2791 8.45736 17.2212C8.16639 17.1633 7.89912 17.0204 7.68934 16.8107C7.47956 16.6009 7.3367 16.3336 7.27882 16.0426C7.22094 15.7517 7.25065 15.4501 7.36418 15.176C7.47771 14.9019 7.66997 14.6676 7.91665 14.5028C8.16332 14.338 8.45333 14.25 8.75 14.25C9.14782 14.25 9.52936 14.408 9.81066 14.6893C10.092 14.9706 10.25 15.3522 10.25 15.75ZM17.75 15.75C17.75 16.0467 17.662 16.3367 17.4972 16.5834C17.3324 16.83 17.0981 17.0223 16.824 17.1358C16.5499 17.2494 16.2483 17.2791 15.9574 17.2212C15.6664 17.1633 15.3991 17.0204 15.1893 16.8107C14.9796 16.6009 14.8367 16.3336 14.7788 16.0426C14.7209 15.7517 14.7506 15.4501 14.8642 15.176C14.9777 14.9019 15.17 14.6676 15.4166 14.5028C15.6633 14.338 15.9533 14.25 16.25 14.25C16.6478 14.25 17.0294 14.408 17.3107 14.6893C17.592 14.9706 17.75 15.3522 17.75 15.75Z"/>
</svg>

<svg viewBox="0 0 24 24" xmlns="http://www.w3.org/2000/svg" aria-hidden="true" fill="currentColor"><path d="M17.75 1.875H7.25A3.375 3.375 0 0 0 3.875 5.25v12a3.375 3.375 0 0 0 3.375 3.375l-.9 1.2a1.125 1.125 0 1 0 1.8 1.35l1.912-2.55h4.876l1.912 2.55a1.125 1.125 0 1 0 1.8-1.35l-.9-1.2a3.375 3.375 0 0 0 3.375-3.375v-12a3.375 3.375 0 0 0-3.375-3.375m-11.625 9v-3h5.25v3zm7.5-3h5.25v3h-5.25zM7.25 4.125h10.5a1.125 1.125 0 0 1 1.125 1.125v.375H6.125V5.25A1.125 1.125 0 0 1 7.25 4.125m10.5 14.25H7.25a1.125 1.125 0 0 1-1.125-1.125v-4.125h12.75v4.125a1.125 1.125 0 0 1-1.125 1.125m-7.5-2.625a1.5 1.5 0 1 1-3 0 1.5 1.5 0 0 1 3 0m7.5 0a1.5 1.5 0 1 1-3 0 1.5 1.5 0 0 1 3 0"/></svg>
